X: 67
T: My Trust is in Mother Corn
N: Derived from pawnee67.krn
O: Oklahoma, U.S.A.
N: from Pawnee Music by Frances Densmore, 1926
Z: transcribed to **kern format by David Huron, August 2000
C: Skidi and Chaui Bands, 1919
L: 1/8
M: 2/4
Q: 1/4=88
K: Eb clef=bass
%%linebreak <none>
G/ [I:setbarnb 1]| 
c> c c/ G/ A/ G/ | 
F F- F !fermata!E | 
F2-F =A/ G/ | 
F F- F !fermata!E | 
F> F F/ E/ F/ E/ | 
C C- C !fermata!G, | 
C CC2 | 
G,< G, G, G, | 
G,7/ :|]  



